X: 1
T: Munster Bacon
M: 6/8
L: 1/8
R: jig
K: Dmaj
ABA DFA|dfe d2c|~B3 dAF|GFG EFG|
A2A dcd|~B3 efg|f/g/af ede|1 fdc dcB:|2 fdc dfg||
|:afd dfa|bge a2g|~f3 ged|ceA ABG|
Fdd cee|dff efg|f/g/af ede|1 fdc dfg:|2 fdc dcB||
